packages/assets/static/images/icons/mountains.svg

<svg width="25" height="24" viewBox="0 0 25 24" xmlns="http://www.w3.org/2000/svg">
<path d="M15 8.8125C15.5934 8.8125 16.1734 8.63655 16.6667 8.30691C17.1601 7.97727 17.5446 7.50873 17.7717 6.96055C17.9987 6.41237 18.0581 5.80917 17.9424 5.22723C17.8266 4.64529 17.5409 4.11074 17.1213 3.69118C16.7018 3.27162 16.1672 2.9859 15.5853 2.87015C15.0033 2.75439 14.4001 2.8138 13.852 3.04086C13.3038 3.26793 12.8353 3.65244 12.5056 4.14579C12.176 4.63914 12 5.21916 12 5.8125C12 6.60815 12.3161 7.37121 12.8787 7.93382C13.4413 8.49643 14.2044 8.8125 15 8.8125ZM15 5.0625C15.1484 5.0625 15.2934 5.10649 15.4167 5.1889C15.54 5.27131 15.6362 5.38844 15.6929 5.52549C15.7497 5.66253 15.7645 5.81333 15.7356 5.95882C15.7067 6.1043 15.6352 6.23794 15.5303 6.34283C15.4255 6.44772 15.2918 6.51915 15.1463 6.54809C15.0008 6.57703 14.85 6.56218 14.713 6.50541C14.576 6.44865 14.4588 6.35252 14.3764 6.22918C14.294 6.10584 14.25 5.96084 14.25 5.8125C14.25 5.61359 14.329 5.42282 14.4697 5.28217C14.6103 5.14152 14.8011 5.0625 15 5.0625ZM23.8425 19.4888L18.7275 10.8563C18.5626 10.5753 18.3267 10.3425 18.0436 10.1813C17.7604 10.0201 17.4399 9.93599 17.1141 9.9375C16.7884 9.93597 16.468 10.02 16.185 10.1813C15.902 10.3425 15.6663 10.5753 15.5016 10.8563L13.7485 13.8141L10.2403 7.86094C10.0747 7.57985 9.83851 7.34686 9.55521 7.18499C9.27192 7.02313 8.95129 6.93798 8.62502 6.93798C8.29874 6.93798 7.97811 7.02313 7.69482 7.18499C7.41152 7.34686 7.17537 7.57985 7.0097 7.86094L0.155642 19.4916C0.0550003 19.6624 0.00131438 19.8569 2.38296e-05 20.0552C-0.00126672 20.2535 0.049884 20.4486 0.148293 20.6208C0.246702 20.7929 0.388872 20.936 0.560398 21.0356C0.731923 21.1351 0.926709 21.1875 1.12502 21.1875H22.875C23.0736 21.1875 23.2686 21.1349 23.4403 21.0351C23.6119 20.9353 23.7541 20.7918 23.8524 20.6193C23.9507 20.4467 24.0015 20.2512 23.9998 20.0527C23.998 19.8541 23.9438 19.6596 23.8425 19.4888ZM8.62502 9.55031L10.1785 12.1875H7.07158L8.62502 9.55031ZM3.09377 18.9375L5.74502 14.4375H11.505L14.1563 18.9375H3.09377ZM16.7681 18.9375L15.0525 16.0313L17.115 12.5531L20.9006 18.9375H16.7681Z"/>
</svg>

<svg viewBox="0 0 25 24" xmlns="http://www.w3.org/2000/svg" aria-hidden="true" fill="currentColor" height="24px" width="24px"><path d="M15 8.813a3 3 0 1 0 0-6 3 3 0 0 0 0 6m0-3.75a.75.75 0 1 1 0 1.5.75.75 0 0 1 0-1.5m8.843 14.426-5.116-8.633a1.86 1.86 0 0 0-1.613-.918 1.86 1.86 0 0 0-1.612.918l-1.754 2.958-3.508-5.953a1.874 1.874 0 0 0-3.23 0L.156 19.49a1.125 1.125 0 0 0 .969 1.697h21.75a1.125 1.125 0 0 0 .968-1.7M8.625 9.55l1.553 2.637H7.073zm-5.531 9.388 2.651-4.5h5.76l2.651 4.5zm13.674 0-1.716-2.907 2.063-3.478 3.786 6.384z"/></svg>
